X:1
T:Title
%%score { ( 1 3 5 ) | ( 2 4 ) }
L:1/8
M:4/4
K:Ab
V:1 bass nm="Grand Piano"
V:3 bass 
V:5 bass 
V:2 bass 
V:4 bass 
V:1
 z4 z2 z[Q:1/4=78] [E,CE] |[M:3/4] .[E,CE]2 [_G,C=E] [DF]2[K:treble] [B,_EG] | .[A,A]2 z .B3 | %3
 z B, [B,EG]E- [DEG][CEA] |[M:5/8] B-B- B3 |[M:1/8] E |[M:3/4] c2 z .A3 | z F z ._E3 | A2 z .A3 | %9
[M:5/8] [A,CA]-[A,CA]- [A,CA]3 |] %10
V:2
 z4 z2 z A,, |[M:3/4] z A, .A,,2 CD, | C,B,, A,,[F,D] G,[=D,A,_C] | [A,C]G, D,C, B,,A,, | %4
[M:5/8] [E,G,E]2 [F,A,] [G,B,]F, |[M:1/8] [E,G,D] |[M:3/4] z2 z F z2 | %7
 z .D [=D,A,_C][E,A,=C] [_D,G,][C,_G,A,] | .[D,F,A,]2 [=D,F,_C]=C CE, |[M:5/8] A,,-A,,- A,,3 |] %10
V:3
 x8 |[M:3/4] z2 z F, z2[K:treble] | E-[CEG] .[CEA]2 B,F | E2 z [A,A] z2 |[M:5/8] z z2 _D2 | %5
[M:1/8] x |[M:3/4] CE .[=EB]2 C[_EG] | .[E_G]>C .=E2 B,A | z B, .A2 E[B,DG] |[M:5/8] x5 |] %10
V:4
 x8 |[M:3/4] A,,2 z .D,3 | z2 z .D,3 | E,2 z2 z2 |[M:5/8] x5 |[M:1/8] x | %6
[M:3/4] [A,,A,]2 [C,G,] [F,A,]2 [C,A,] | [D,A,]2 z2 z2 | z2 z .E,3 |[M:5/8] x5 |] %10
V:5
 x8 |[M:3/4] x5[K:treble] x | x6 | x6 |[M:5/8] z2 =D z A, |[M:1/8] x |[M:3/4] x6 | x6 | x6 | %9
[M:5/8] x5 |] %10

